X:0
T:The Stool of Repentance (cheat's version)
G:jig
M:6/8
L:1/8
Q:3/8=120
K:G
% tweaked to remove the f's
g2d B2d|g2e dcB|gee e2d|ege e2d |
g2d B2d|g2e dcB|c2d e2d|egB A2G:|
BGG dGG|BGG dcB|cAA eAA|cAA edc |
BGG dGG|BGG dcB|c2d e2d|egB A2G:|

This tune, from a flute collection, is a reel probably composed for the
fiddle:

